X: 19042
T: Inverness City, The
R: waltz
M: 3/4
K: Gmajor
|:B,4 D2|G4 A2|B4 G2|D6|B,4 D2|G2 A2 B2|c4 A2|E6|
F4 F2|F4 G2|A4 F2|E2 D4|A6|_B6|B6|D2 ^C2 =C|
B,4 D2|G4 A2|B4 G2|D6|B,4 D2|G2 A2 B2|c4 A2|E6|
[1: F4 F2|F2 E2 D2|c6|A6|D3 ^C D2|B4 A2|G6|G6:|
[2: F4 F2|F4 G2|A4 F2|E2 D4|A6|d6|G6|G6||
|:e6|c4 e2|d2 B2 G2|D6|F4 G2|A2 F2 D2|G4 A2|
B6|e6|c4 e2|d2 B2 G2|D6|F4 D2|c2 B2 A2|G6|G6:|

